X:1
T:It’s Just Like His Great  Love
T:Clarence B. Strouse
T:It’s Just Like His Great  Love
T:Public Domain
T:Public Domain
T:Public Domain
C:Clarence B. Strouse
Z:Public Domain
%%score 1 ( 2 3 )
L:1/8
M:4/4
K:Bb
V:1 treble 
V:2 bass 
V:3 bass 
V:1
 [DF]2 | [DB]3 [CA] [Ec]2 [DB]2 | [FA]2 [EG]4 [_DG]2 | [EA]3 [EG] [EF]2 [EG]2 | [DF]6 [DF]2 | %5
w: 1.~A|friend I have called|Je- sus, whose|love is strong and|true, And|
w: 2.~Some-|times the clouds of|trou- ble be-|dim the sky a-|bove, I|
w: 3.~When|sor- row’s clouds o’er-|take me, and|break up- on my|head, When|
w: 4.~O,|I could sing for-|ev- er of|Je- sus’ love di-|vine, Of|
 [DB]3 [CA] [Ec]2 [DB]2 | [FA]2 [EG]2 [EG]2 [=Ec]2 | [=Ec]3 [EG] [EA]2 [EB]2 | [Ec]6 [E^c]2 | %9
w: ne- ver fails how-|e’er ’tis tried, no|mat- ter what I|do; I’ve|
w: can- not see my|Sav- ior’s face, I|doubt His wond- rous|love; But|
w: life seems worse than|use- le- ss, and|I were bet- ter|dead; I|
w: all His care and|ten- der- ness for|this poor life of|mine; His|
 [Dd]3 [Fc] [FB]2 [FA]2 | [FA]2 [EG]2 [Ec]3 [EG] | [EB]2 [EA]2 [EB]2 [Ec]2 | [Dd]6 [Fd]2 | %13
w: sinned a- gainst this|love of His, but|when I knelt to|pray, Con-|
w: He, from Heav- en’s|mer- cy seat, be-|hold- ing my des-|pair, In|
w: take my grief to|Je- sus then, nor|do I go in|vain, For|
w: love is in and|o- ver all, and|wind and waves o-|bey, When|
 [^Fd]3 [Fe] [Fd]2 [DA]2 | [Dc]2 [_DB]2 [DB]2 [Dc]2 | [Fd]2 [FB]2 [Ec]3 [DB] | [DB]6 || %17
w: fess- ing all my|guilt to Him, the|sin clouds rolled a-|way.|
w: pi- ty bursts the|clouds be- tween, and|shows me He is|there.|
w: heavenl- y hope He|gives that cheers like|sun- shine af- ter|rain.|
w: Je- sus whis- pers|“Peace, be still!” and|rolls the clouds a-|way.|
"^Refrain" [DF]2 | [DB]2 [DA]2 [DG]2 [B,D]>[B,D] | [DF]>[DF] [DF]>[DF] [DF]3 [DF] | %20
w: |||
w: It’s|just like Je- sus to|roll the clouds a- way, It’s|
w: |||
w: |||
 [DB]2 [DA]2 [DG]2 [B,D]>[B,D] | [A,E]>[A,E] [A,E]>[A,E] [A,E]3 | [EF] | [Ec]2 [EB]2 [EA]2 [EG]2 | %24
w: ||||
w: just like Je- sus to|keep me day by day,|It’s|just like Je- sus|
w: ||||
w: ||||
 [DG]>[DF] [C=E]>[EG] [Ec]3 [EB] | [EA]2 [EG]2 [EF]2 [Ec]2 | [DB]6 |] %27
w: |||
w: all a- long the way, It’s|just like His great|love.|
w: |||
w: |||
V:2
 [B,,B,]2 | [B,,B,]3 [B,,B,] [B,,B,]2 [B,,B,]2 | [E,B,]2 [E,B,]4 [=E,B,]2 | %3
 [F,C]3 [F,B,] [F,A,]2 [F,A,]2 | [B,,B,]6 [B,,B,]2 | [B,,B,]3 [B,,B,] [B,,B,]2 [B,,B,]2 | %6
 [E,B,]2 [E,B,]2 [E,B,]2 [C,B,]2 | [C,B,]3 [C,B,] [C,B,]2 [C,B,]2 | [F,A,]6 [F,A,]2 | %9
 [B,,B,]3 [C,A,] [D,B,]2 [D,B,]2 | [E,B,]2 [E,B,]2 [E,G,]3 [E,C] | [F,C]2 [F,C]2 F,2 [F,A,]2 | %12
 [B,,B,]6 [B,,B,]2 | [D,A,]3 [D,A,] [D,A,]2 [^F,A,]2 | [G,B,]2 [G,B,]2 [=E,G,]2 [E,G,]2 | %15
 [F,B,]2 [F,D]2 [F,A,]3 [B,,B,] | [B,,F,B,]6 || [B,,B,]2 | %18
 [B,,F,]2 [B,,^F,]2 [B,,G,]2 [B,,=F,]>[B,,F,] | [B,,B,]>[B,,B,] [B,,B,]>[B,,B,] [B,,B,]3 [B,,B,] | %20
 [B,,F,]2 [B,,^F,]2 [B,,G,]2 [B,,B,]>[B,,F,] | [C,F,]>[C,F,] [A,,F,]>[C,F,] [F,,F,]3 | [F,A,] | %23
 [F,A,]2 [F,B,]2 [F,C]2 [F,A,]2 | [B,,B,]>[B,,B,] [C,B,]>[C,B,] [C,B,]3 [C,C] | %25
 [F,C]2 [F,B,]2 [F,A,]2 [F,A,]2 | [B,,F,B,]6 |] %27
V:3
 x2 | x8 | x8 | x8 | x8 | x8 | x8 | x8 | x8 | x8 | x8 | x4 G,2 x2 | x8 | x8 | x8 | x8 | x6 || x2 | %18
 x8 | x8 | x8 | x7 | x | x8 | x8 | x8 | x6 |] %27

